X: 1
T: Caoilte Mountains
M: 4/4
L: 1/8
R: reel
K: Gmaj
|AAeA GEDE|GABd efga|bagb aged|BBBA GABG|
AAeA GEDE|GABd efga|bagb aged|BAGB A2G2|
aaba gede|g3 a gede|gaba gedB|AABG EA A2|
aaba gede|degb aaga|bggg agba|ggga gedB|
